lib/radiotmp/nrk-list-expressive.svg

<svg width="24" height="24" viewBox="0 0 24 24" fill="none" xmlns="http://www.w3.org/2000/svg">
<path d="M2 6C2 5.44772 2.44772 5 3 5H21C21.5523 5 22 5.44772 22 6C22 6.55228 21.5523 7 21 7H3C2.44772 7 2 6.55228 2 6Z" fill="black"/>
<path d="M2 12C2 11.4477 2.44772 11 3 11H21C21.5523 11 22 11.4477 22 12C22 12.5523 21.5523 13 21 13H3C2.44772 13 2 12.5523 2 12Z" fill="black"/>
<path d="M22 18C22 17.4477 21.5523 17 21 17H3C2.44772 17 2 17.4477 2 18C2 18.5523 2.44772 19 3 19H21C21.5523 19 22 18.5523 22 18Z" fill="black"/>
</svg>

<svg xmlns="http://www.w3.org/2000/svg" viewBox="0 0 24 24"><path fill="#000" d="M2 6a1 1 0 0 1 1-1h18a1 1 0 1 1 0 2H3a1 1 0 0 1-1-1ZM2 12a1 1 0 0 1 1-1h18a1 1 0 1 1 0 2H3a1 1 0 0 1-1-1ZM22 18a1 1 0 0 0-1-1H3a1 1 0 1 0 0 2h18a1 1 0 0 0 1-1Z"/></svg>
